Sweet-Rainbow/icons/terminal.svg

<?xml version="1.0" encoding="UTF-8" standalone="no"?>
<!-- Generator: Gravit.io -->

<svg
   xmlns:dc="http://purl.org/dc/elements/1.1/"
   xmlns:cc="http://creativecommons.org/ns#"
   xmlns:rdf="http://www.w3.org/1999/02/22-rdf-syntax-ns#"
   xmlns:svg="http://www.w3.org/2000/svg"
   xmlns="http://www.w3.org/2000/svg"
   xmlns:sodipodi="http://sodipodi.sourceforge.net/DTD/sodipodi-0.dtd"
   xmlns:inkscape="http://www.inkscape.org/namespaces/inkscape"
   style="isolation:isolate"
   viewBox="0 0 36 36"
   width="48"
   height="48"
   version="1.1"
   id="svg16"
   sodipodi:docname="terminal.svg"
   inkscape:version="0.92.4 (5da689c313, 2019-01-14)">
  <metadata
     id="metadata22">
    <rdf:RDF>
      <cc:Work
         rdf:about="">
        <dc:format>image/svg+xml</dc:format>
        <dc:type
           rdf:resource="http://purl.org/dc/dcmitype/StillImage" />
        <dc:title></dc:title>
      </cc:Work>
    </rdf:RDF>
  </metadata>
  <defs
     id="defs20" />
  <sodipodi:namedview
     pagecolor="#ffffff"
     bordercolor="#666666"
     borderopacity="1"
     objecttolerance="10"
     gridtolerance="10"
     guidetolerance="10"
     inkscape:pageopacity="0"
     inkscape:pageshadow="2"
     inkscape:window-width="640"
     inkscape:window-height="480"
     id="namedview18"
     showgrid="false"
     inkscape:zoom="29.365243"
     inkscape:cx="25.325443"
     inkscape:cy="32"
     inkscape:current-layer="svg16"
     units="px" />
  <linearGradient
     id="_lgradient_3"
     x1="0"
     y1="0.5"
     x2="1"
     y2="0.5"
     gradientTransform="matrix(46.5,0,0,41,1,3.5)"
     gradientUnits="userSpaceOnUse">
    <stop
       offset="0%"
       stop-opacity="1"
       style="stop-color:rgb(0,255,255)"
       id="stop2" />
    <stop
       offset="98.26086956521739%"
       stop-opacity="1"
       style="stop-color:rgb(165,83,168)"
       id="stop4" />
  </linearGradient>
  <linearGradient
     id="_lgradient_4"
     x1="0"
     y1="0.5"
     x2="1"
     y2="0.5"
     gradientTransform="matrix(14.06,0,0,18.12,10.19,13.69)"
     gradientUnits="userSpaceOnUse">
    <stop
       offset="0%"
       stop-opacity="1"
       style="stop-color:rgb(0,255,255)"
       id="stop9" />
    <stop
       offset="98.26086956521739%"
       stop-opacity="1"
       style="stop-color:rgb(165,83,168)"
       id="stop11" />
  </linearGradient>
  <g
     id="g831"
     transform="matrix(0.77419355,0,0,0.77419355,-0.77419359,-0.5806452)">
    <path
       id="path7"
       d="m 27.722,32.15 v 0 c -1.141,0 -2.067,-0.896 -2.067,-2 v 0 c 0,-1.104 0.926,-2 2.067,-2 v 0 H 44.45 c 1.684,0 3.05,1.366 3.05,3.05 v 4.3 c 0,2.39 -0.982,4.68 -2.728,6.36 C 43.036,43.55 40.67,44.5 38.2,44.5 H 10.3 C 7.83,44.5 5.464,43.55 3.728,41.86 1.982,40.18 1,37.89 1,35.5 v -23 C 1,10.11 1.982,7.82 3.728,6.14 5.464,4.45 7.83,3.5 10.3,3.5 h 27.9 c 2.47,0 4.836,0.95 6.572,2.64 1.746,1.68 2.728,3.97 2.728,6.36 v 4.34 0 c 0,1.104 -0.926,2 -2.067,2 v 0 c -1.14,0 -2.066,-0.896 -2.066,-2 v 0 -4.34 c 0,-1.33 -0.548,-2.6 -1.509,-3.54 C 40.887,8.03 39.574,7.5 38.2,7.5 H 10.3 C 8.926,7.5 7.613,8.03 6.642,8.96 5.681,9.9 5.133,11.17 5.133,12.5 v 23 c 0,1.33 0.548,2.6 1.509,3.54 0.971,0.93 2.284,1.46 3.658,1.46 h 27.9 c 1.374,0 2.687,-0.53 3.658,-1.46 0.961,-0.94 1.509,-2.21 1.509,-3.54 v -3.35 z"
       style="fill:url(#_lgradient_3)"
       inkscape:connector-curvature="0" />
    <path
       id="path14"
       d="m 11.77,18.08 v 0 c -0.872,-0.684 -1.027,-1.946 -0.345,-2.815 v 0 c 0.682,-0.869 1.938,-1.024 2.805,-0.345 v 0 l 7.656,5.983 c 1.305,1.019 1.305,2.675 0,3.694 L 14.23,30.58 v 0 c -0.867,0.679 -2.123,0.524 -2.805,-0.345 v 0 C 10.743,29.366 10.898,28.104 11.77,27.42 v 0 l 5.98,-4.67 z"
       style="fill:url(#_lgradient_4)"
       inkscape:connector-curvature="0" />
  </g>
</svg>

<?xml version="1.0" encoding="UTF-8" standalone="no"?><!-- Generator: Gravit.io --><svg xmlns="http://www.w3.org/2000/svg" xmlns:xlink="http://www.w3.org/1999/xlink" style="isolation:isolate" viewBox="0 0 48 48" width="48pt" height="48pt"><linearGradient id="_lgradient_3" x1="0" y1="0.5" x2="1" y2="0.5" gradientTransform="matrix(46.5,0,0,41,1,3.5)" gradientUnits="userSpaceOnUse"><stop offset="0%" stop-opacity="1" style="stop-color:rgb(0,255,255)"/><stop offset="98.26086956521739%" stop-opacity="1" style="stop-color:rgb(165,83,168)"/></linearGradient><path d=" M 27.722 32.15 L 27.722 32.15 C 26.581 32.15 25.655 31.254 25.655 30.15 L 25.655 30.15 C 25.655 29.046 26.581 28.15 27.722 28.15 L 27.722 28.15 L 44.45 28.15 C 46.134 28.15 47.5 29.516 47.5 31.2 L 47.5 35.5 C 47.5 37.89 46.518 40.18 44.772 41.86 C 43.036 43.55 40.67 44.5 38.2 44.5 L 10.3 44.5 C 7.83 44.5 5.464 43.55 3.728 41.86 C 1.982 40.18 1 37.89 1 35.5 L 1 12.5 C 1 10.11 1.982 7.82 3.728 6.14 C 5.464 4.45 7.83 3.5 10.3 3.5 L 38.2 3.5 C 40.67 3.5 43.036 4.45 44.772 6.14 C 46.518 7.82 47.5 10.11 47.5 12.5 L 47.5 16.84 L 47.5 16.84 C 47.5 17.944 46.574 18.84 45.433 18.84 L 45.433 18.84 C 44.293 18.84 43.367 17.944 43.367 16.84 L 43.367 16.84 L 43.367 12.5 C 43.367 11.17 42.819 9.9 41.858 8.96 C 40.887 8.03 39.574 7.5 38.2 7.5 L 10.3 7.5 C 8.926 7.5 7.613 8.03 6.642 8.96 C 5.681 9.9 5.133 11.17 5.133 12.5 L 5.133 35.5 C 5.133 36.83 5.681 38.1 6.642 39.04 C 7.613 39.97 8.926 40.5 10.3 40.5 L 38.2 40.5 C 39.574 40.5 40.887 39.97 41.858 39.04 C 42.819 38.1 43.367 36.83 43.367 35.5 L 43.367 32.15 L 27.722 32.15 Z " fill="url(#_lgradient_3)"/><linearGradient id="_lgradient_4" x1="0" y1="0.5" x2="1" y2="0.5" gradientTransform="matrix(14.06,0,0,18.12,10.19,13.69)" gradientUnits="userSpaceOnUse"><stop offset="0%" stop-opacity="1" style="stop-color:rgb(0,255,255)"/><stop offset="98.26086956521739%" stop-opacity="1" style="stop-color:rgb(165,83,168)"/></linearGradient><path d=" M 11.77 18.08 L 11.77 18.08 C 10.898 17.396 10.743 16.134 11.425 15.265 L 11.425 15.265 C 12.107 14.396 13.363 14.241 14.23 14.92 L 14.23 14.92 L 21.886 20.903 C 23.191 21.922 23.191 23.578 21.886 24.597 L 14.23 30.58 L 14.23 30.58 C 13.363 31.259 12.107 31.104 11.425 30.235 L 11.425 30.235 C 10.743 29.366 10.898 28.104 11.77 27.42 L 11.77 27.42 L 17.75 22.75 L 11.77 18.08 Z " fill="url(#_lgradient_4)"/></svg>
